src/Resources/public/images/be-icons/oauth_c4g.svg

<?xml version="1.0" encoding="UTF-8" standalone="no"?>
<!DOCTYPE svg PUBLIC "-//W3C//DTD SVG 1.1//EN" "http://www.w3.org/Graphics/SVG/1.1/DTD/svg11.dtd">
<svg width="100%" height="100%" viewBox="0 0 192 150" version="1.1" xmlns="http://www.w3.org/2000/svg" xmlns:xlink="http://www.w3.org/1999/xlink" xml:space="preserve" xmlns:serif="http://www.serif.com/" style="fill-rule:evenodd;clip-rule:evenodd;stroke-linecap:round;stroke-linejoin:round;stroke-miterlimit:1.5;">
    <g transform="matrix(0.973783,0,0,0.97943,4.07961,2.75886)">
        <path d="M185.4,24.939L185.4,122.578C185.4,134.512 175.655,144.2 163.653,144.2L24.932,144.2C12.93,144.2 3.185,134.512 3.185,122.578L3.185,24.939C3.185,13.005 12.93,3.317 24.932,3.317L163.653,3.317C175.655,3.317 185.4,13.005 185.4,24.939Z" style="fill:rgb(60,60,60);stroke:rgb(46,161,219);stroke-width:5.12px;"/>
    </g>
    <g transform="matrix(0.860218,0,0,0.860218,9.41047,10.3958)">
        <g transform="matrix(1.09017,0,0,1.16105,-16.6486,-3.43736)">
            <g transform="matrix(1.24074,0.00805393,-0.00737113,1.13555,5.67,12.2998)">
                <rect x="106.888" y="32.398" width="23.124" height="31.001" style="fill:white;"/>
            </g>
            <g transform="matrix(1.80103,-0.00317102,0.00317102,1.80103,-82.9592,-51.6619)">
                <path d="M139,54.14L123.53,54.14C121.758,54.14 120.3,55.598 120.3,57.37L120.3,62.72L106.47,62.72C106.297,62.719 106.131,62.787 106.01,62.91L102.82,66.16C102.739,66.241 102.693,66.351 102.693,66.465C102.693,66.579 102.739,66.689 102.82,66.77L106,70C106.121,70.123 106.287,70.191 106.46,70.19L108.07,70.19C108.272,70.191 108.466,70.112 108.61,69.97L110.34,68.23C110.453,68.129 110.627,68.129 110.74,68.23L112.31,69.8C112.696,70.179 113.324,70.179 113.71,69.8L115.26,68.24C115.371,68.134 115.549,68.134 115.66,68.24L117.4,70C117.545,70.139 117.739,70.218 117.94,70.22L120.29,70.22L120.29,75.58C120.29,77.352 121.748,78.81 123.52,78.81L139,78.81C140.772,78.81 142.23,77.352 142.23,75.58L142.23,57.37C142.23,55.598 140.772,54.14 139,54.14ZM129,60.35C129.586,59.765 130.382,59.436 131.21,59.436C132.927,59.436 134.34,60.849 134.34,62.566C134.34,64.284 132.927,65.696 131.21,65.696C129.494,65.696 128.082,64.286 128.08,62.57C128.081,61.738 128.412,60.939 129,60.35ZM136.56,72.7L125.82,72.7L125.82,69.95C125.82,69.94 125.82,69.93 125.82,69.92C125.82,68.532 126.952,67.386 128.34,67.37L134,67.37C135.404,67.37 136.56,68.526 136.56,69.93L136.56,72.7Z" style="fill:rgb(46,161,219);fill-rule:nonzero;"/>
            </g>
        </g>
        <g transform="matrix(1.30221,0,0,1.30221,-9.85079,-14.3792)">
            <g transform="matrix(1,0,0,1,-20,10)">
                <path d="M83.21,42.9L83.21,60.72L76.31,60.72L76.31,43.12C76.22,41.66 75.31,36.99 68.63,36.99C61.95,36.99 61.06,41.61 61,43.13L61,60.72L54.1,60.72L54.1,42.9C54.27,38.47 57.52,30.09 68.67,30.09C79.82,30.09 83.05,38.47 83.21,42.9Z" style="fill:white;fill-rule:nonzero;"/>
            </g>
            <g transform="matrix(1,0,0,1,-20,10)">
                <path d="M83.21,54.2C82.88,54.14 82.545,54.11 82.21,54.11L55.07,54.11C55.063,54.11 55.057,54.11 55.05,54.11C52.044,54.11 49.57,56.584 49.57,59.59C49.57,59.593 49.57,59.597 49.57,59.6L49.57,81.84C49.57,84.857 52.053,87.34 55.07,87.34L82.2,87.34C85.213,87.335 87.69,84.853 87.69,81.84L87.69,59.6C87.692,56.967 85.798,54.684 83.21,54.2ZM73,79.1L64.26,79.1L66.21,71C64.821,70.156 63.97,68.643 63.97,67.018C63.97,64.461 66.074,62.358 68.63,62.358C71.186,62.358 73.29,64.461 73.29,67.018C73.29,68.643 72.439,70.156 71.05,71L73,79.1Z" style="fill:rgb(46,161,219);fill-rule:nonzero;"/>
            </g>
        </g>
    </g>
</svg>

<svg xmlns="http://www.w3.org/2000/svg" viewBox="0 0 191.8 150"><path d="M74.41,116.57c0,8.05-1.67,10.42-8.32,10.42s-8.32-2.37-8.32-10.42,1.66-10.5,8.32-10.5S74.41,108.5,74.41,116.57Zm-13.86,0c0,6.22.82,8,5.54,8s5.53-1.77,5.53-8-.81-8.07-5.53-8.07S60.55,110.32,60.55,116.57Z" style="fill:#103a5d"/><path d="M88.78,109.26l4.67,17.16c0,.35,0,.43-.33.43H91c-.22,0-.27-.08-.35-.43l-1.69-6H80.74l-1.72,6c-.08.35-.11.43-.36.43H76.53c-.32,0-.38-.08-.32-.43L81,109.26c.79-2.81,1.25-3.19,3.79-3.19C87.64,106.07,88,106.45,88.78,109.26Zm-5.13.65L81.42,118h6.9l-2.13-8.08c-.35-1.25-.41-1.44-1.36-1.44C84,108.47,84,108.66,83.65,109.91Z" style="fill:#103a5d"/><path d="M107.9,111.93a.36.36,0,0,1,.41.41v13.8c0,.33-.13.36-.41.41a31.19,31.19,0,0,1-5.67.44c-4.88,0-6.33-.63-6.33-6.41v-8.24c0-.27.19-.41.47-.41h1.74a.37.37,0,0,1,.41.41v8c0,4.15.82,4.31,3.44,4.31h3.73V112.34a.37.37,0,0,1,.41-.41Z" style="fill:#103a5d"/><path d="M115,107.81c.3-.08.46.06.46.36V112h2.87c.3,0,.43.14.43.41v1.28c0,.27-.13.41-.43.41h-2.87v9.17c0,1.2.33,1.47,1.78,1.47h1.3c.3,0,.44.11.44.38v1.31c0,.25-.14.38-.41.44A7.8,7.8,0,0,1,117,127c-2,0-4.2,0-4.2-3.11v-9.82h-1.52a.36.36,0,0,1-.41-.41v-1.28a.36.36,0,0,1,.41-.41h1.52v-3.27c0-.28.11-.38.36-.44Z" style="fill:#103a5d"/><path d="M123.62,106.23a.36.36,0,0,1,.4.41v5.29c1.34-.13,2.68-.13,3.47-.13,4.88,0,6.33.6,6.33,6.38v8.26a.36.36,0,0,1-.41.41h-1.8a.36.36,0,0,1-.41-.41v-8c0-4.17-.82-4.34-3.44-4.34H124v12.38c0,.28-.13.41-.4.41h-1.8a.36.36,0,0,1-.41-.41v-19.8a.36.36,0,0,1,.41-.41Z" style="fill:#103a5d"/><path d="M139,54.14H123.53a3.23,3.23,0,0,0-3.23,3.23v5.35H106.47a.64.64,0,0,0-.46.19l-3.19,3.25a.43.43,0,0,0,0,.61L106,70a.64.64,0,0,0,.46.19h1.61a.76.76,0,0,0,.54-.22l1.73-1.74a.3.3,0,0,1,.4,0l1.57,1.57a1,1,0,0,0,1.4,0l1.55-1.56a.29.29,0,0,1,.4,0h0L117.4,70a.79.79,0,0,0,.54.22h2.35v5.36a3.23,3.23,0,0,0,3.23,3.23H139a3.23,3.23,0,0,0,3.23-3.23V57.37A3.23,3.23,0,0,0,139,54.14Zm-10,6.21a3.13,3.13,0,1,1-.92,2.22A3.15,3.15,0,0,1,129,60.35Zm7.56,12.35H125.82l0-2.75a2.55,2.55,0,0,1,2.52-2.58H134a2.56,2.56,0,0,1,2.56,2.56Z" style="fill:#103a5d"/><path d="M83.21,54.2a5.66,5.66,0,0,0-1-.09H55.07a5.48,5.48,0,0,0-5.5,5.49V81.84a5.5,5.5,0,0,0,5.5,5.5H82.2a5.5,5.5,0,0,0,5.49-5.5V59.6A5.49,5.49,0,0,0,83.21,54.2ZM73,79.1H64.26L66.21,71a4.66,4.66,0,1,1,4.84,0Z" style="fill:#103a5d"/><path d="M83.21,42.9V60.72h-6.9V43.12c-.09-1.46-1-6.13-7.68-6.13S61.06,41.61,61,43.13V60.72h-6.9V42.9c.17-4.43,3.42-12.81,14.57-12.81S83.05,38.47,83.21,42.9Z" style="fill:#103a5d"/><path d="M24.36,5.15S4.83,5.15,4.83,24.67v101s0,19.53,19.53,19.53H166.25s19.53,0,19.53-19.53V24.67s0-19.52-19.53-19.52Z" style="fill:none;stroke:#103a5d;stroke-width:2.51389524052214px"/></svg>
